X:261
T:Steirer (59.)
C:traditionell
A:Salzkammergut
S:MIDI erhalten von Christian Amon. Nach einer kopie im besitz von Johann Stoeckl eines manuscriptes. Stoeckl(zitiert von Amon): "diese sammlung wurde 1935 im hause der familie Hohenlohe-Schillingfuerst gefunden. Sie wurde von einem der beiden brueder Steinegger 1866 verfasst. Die originale sind im Ausseer Kammerhofmuseum".
M:3/4
L:1/8
K:G
V:1
def |\
gB g3 f | ec e2 AB | cF cF cB | G2 Bd ef |\
gB g3 f | ec e2 AB | cF cF cB | G6 |*
V:2
fga |\
bd b3 a | ge g2 cd | eA eA ed | B2 df ga |\
bd b3 a | ge g2 cd | eA eA ed | B6 |*
